ui/StatusQ/src/assets/img/icons/italic.svg

<svg fill="none" height="20" viewBox="0 0 20 20" width="20" xmlns="http://www.w3.org/2000/svg"><path clip-rule="evenodd" d="m9.85207 4.10002h-2.35207v-1.2h6v1.2h-2.4444l-.9077 11.79998h2.3521v1.2h-6v-1.2h2.44438z" fill="#09101c" fill-rule="evenodd"/></svg>

<svg width="20" height="20" viewBox="0 0 20 20" fill="none" xmlns="http://www.w3.org/2000/svg">
<path fill-rule="evenodd" clip-rule="evenodd" d="M9.85207 4.10002H7.5V2.90002H13.5V4.10002H11.0556L10.1479 15.9H12.5V17.1H6.5V15.9H8.94438L9.85207 4.10002Z" fill="#09101C"/>
</svg>
